static/assets/images/networks/berachain-mono.svg

<svg width="478" height="256" viewBox="0 0 478 256" fill="none" xmlns="http://www.w3.org/2000/svg">
<path d="M236.861 98.0842C240.579 107.303 246.22 116.712 253.785 126.311C258.27 132.005 261.65 138.525 263.925 145.871C265.959 152.446 266.833 159.611 266.546 167.364C265.825 186.711 259.315 204.327 247.015 220.215C243.705 224.499 240.052 227.898 236.057 230.412C226.448 236.468 215.966 239.937 204.61 240.818C191.691 241.819 179.1 242.343 166.838 242.39C165.621 242.39 164.435 242.785 163.453 243.517C156.813 248.423 149.563 252.114 141.702 254.59C135.275 256.612 128.917 256.459 122.629 254.131C117.413 252.211 112.535 249.642 107.994 246.424C106.515 245.367 104.97 244.416 103.361 243.572C101.882 242.784 100.171 242.385 98.2289 242.376C85.3098 242.274 73.3803 241.815 62.4402 240.999C52.8319 240.284 43.6119 237.59 34.7804 232.916C28.6214 229.651 23.3409 225.163 18.939 219.449C15.4711 214.942 12.0171 209.071 8.57698 201.837C4.12884 192.479 1.39152 182.695 0.365021 172.484C-1.06837 158.173 1.71981 144.976 8.72957 132.891C8.73882 132.863 11.9385 128.37 18.3287 119.411C23.0173 112.835 26.9013 105.879 29.9808 98.5433C30.1455 98.1565 30.2078 97.7332 30.1617 97.3141C30.1155 96.895 29.9625 96.4943 29.7172 96.1505C20.8209 83.6207 14.8516 69.9966 11.8091 55.2781C10.4866 48.8973 10.9814 41.4545 13.2933 32.9499C18.2871 14.5772 30.0455 3.81889 48.5687 0.674853C57.4095 -0.827605 66.2596 0.178686 75.1189 3.6937C84.9492 7.58896 94.035 13.0145 102.376 19.9703C103.68 21.0647 105.146 21.38 106.774 20.9163C124.021 16.0287 142.045 16.0843 160.845 21.0833C161.251 21.1917 161.676 21.2067 162.087 21.1272C162.498 21.0477 162.884 20.8757 163.217 20.6242C168.729 16.4878 174.657 12.4998 181 8.66015C195.871 -0.354598 211.167 -2.21412 226.888 3.08158C231.622 4.6675 235.659 6.847 238.997 9.62005C242.678 12.6621 245.711 16.2235 248.097 20.3042C251.389 25.9431 253.66 32.2543 254.908 39.238C256.11 45.9712 255.847 52.8157 254.117 59.7716C251.658 69.5932 248.541 77.5738 244.768 83.7135C242.095 88.0539 239.492 92.4361 236.958 96.86C236.85 97.046 236.785 97.2529 236.768 97.4651C236.752 97.6773 236.783 97.889 236.861 98.0842Z" fill="black"/>
<path d="M347.432 179.493C356.517 181.843 363.275 186.681 367.706 194.005C370.267 198.238 372.147 204.075 373.344 211.516C374.299 217.446 374.766 223.625 374.747 230.052C374.743 230.395 374.605 230.722 374.365 230.963C374.124 231.204 373.799 231.339 373.461 231.339H349.667C349.543 231.34 349.42 231.314 349.306 231.264C349.192 231.215 349.09 231.141 349.005 231.049C348.92 230.958 348.854 230.849 348.813 230.73C348.771 230.611 348.753 230.485 348.761 230.359C349.287 222.664 348.508 215.598 346.424 209.161C346.073 208.069 345.572 207.991 344.919 208.927C343.692 210.683 342.358 212.175 340.917 213.404C339.369 214.72 337.611 215.559 335.644 215.92C330.191 216.934 325.819 214.954 322.527 209.98C321.807 208.898 321.232 208.971 320.804 210.2C319.81 213.018 319.328 215.92 319.358 218.904C319.397 222.571 319.212 226.468 318.803 230.593C318.781 230.799 318.685 230.989 318.534 231.127C318.383 231.264 318.187 231.34 317.985 231.339H293.577C293.326 231.34 293.085 231.242 292.905 231.067C292.725 230.892 292.62 230.654 292.613 230.403C292.389 221.616 293.134 213.35 294.848 205.606C297.701 192.703 305.856 184.091 319.314 179.771C319.611 179.672 319.87 179.484 320.053 179.232C320.237 178.979 320.336 178.677 320.336 178.366V170.905C320.336 170.69 320.263 170.481 320.13 170.314C319.997 170.146 319.813 170.03 319.606 169.983C311.066 168.004 304.493 163.464 299.887 156.363C296.245 150.746 293.952 143.563 293.007 134.814C291.731 123.072 292.598 111.49 295.607 100.069C298.83 87.8292 306.82 79.8317 319.577 76.0768C319.793 76.0135 319.982 75.8836 320.116 75.7068C320.251 75.53 320.323 75.3158 320.322 75.0966L320.278 67.1968C320.273 66.9932 320.2 66.7952 320.069 66.632C319.937 66.4687 319.755 66.3487 319.548 66.2897C305.915 62.3983 297.623 53.4158 294.672 39.3422C292.978 31.296 292.301 23.1572 292.642 14.9257C292.649 14.7251 292.734 14.5353 292.879 14.3962C293.023 14.2571 293.216 14.1794 293.416 14.1795L318.028 14.0918C318.236 14.0913 318.435 14.1695 318.587 14.3107C318.739 14.4519 318.832 14.6455 318.846 14.8525C319.226 19.3389 319.387 23.718 319.328 27.9898C319.289 30.8572 319.883 33.5685 321.11 36.1237C321.143 36.195 321.193 36.2561 321.257 36.3016C321.32 36.3471 321.395 36.3755 321.475 36.3842C321.555 36.3929 321.637 36.3817 321.714 36.3515C321.79 36.3214 321.859 36.2733 321.914 36.2115C329.675 27.6387 337.446 27.9117 345.226 37.0308C345.898 37.8208 346.37 37.7184 346.643 36.7236C348.474 30.0525 349.18 22.8597 348.761 15.1451C348.753 15.0096 348.773 14.8739 348.819 14.7464C348.866 14.6189 348.937 14.5022 349.03 14.4035C349.123 14.3049 349.236 14.2263 349.36 14.1727C349.485 14.1191 349.619 14.0916 349.754 14.0918H373.636C373.92 14.0918 374.193 14.2038 374.396 14.4036C374.598 14.6035 374.713 14.8752 374.717 15.1597C374.873 23.401 374.128 31.2473 372.482 38.6985C370.827 46.2473 368.251 52.0601 364.755 56.1369C360.373 61.2572 354.604 64.6512 347.446 66.319C347.231 66.3685 347.039 66.4851 346.901 66.6498C346.763 66.8145 346.688 67.0176 346.687 67.226L346.643 74.7748C346.643 75.0149 346.724 75.2493 346.874 75.4421C347.025 75.635 347.236 75.7757 347.476 75.8428C355.539 77.9689 361.781 82.0359 366.202 88.0437C369.542 92.5984 371.947 99.2158 373.417 107.896C375.715 121.511 375.063 134.741 371.46 147.586C368.12 159.484 360.232 167.014 347.797 170.174C347.549 170.236 347.328 170.357 347.168 170.518C347.007 170.679 346.915 170.871 346.906 171.066L346.614 178.6C346.605 178.789 346.681 178.981 346.83 179.144C346.979 179.306 347.192 179.429 347.432 179.493ZM344.905 105.38C343.464 107.906 341.502 109.812 339.018 111.1C336.516 112.397 333.955 112.865 331.335 112.504C328.073 112.046 325.376 110.324 323.243 107.34C321.743 105.233 320.779 105.458 320.351 108.013C318.618 118.283 318.705 128.855 320.614 139.73C320.76 140.607 321.149 140.734 321.782 140.11C330.167 131.722 337.937 131.937 345.095 140.754C345.806 141.622 346.302 141.514 346.585 140.432C349.652 128.758 349.633 117.142 346.526 105.584C346.156 104.2 345.616 104.131 344.905 105.38Z" fill="black"/>
<path d="M450.789 127.543C462.825 130.44 470.615 137.579 474.16 148.961C477.471 159.553 478.601 170.598 477.549 182.097C476.575 192.893 474.593 200.964 471.604 206.308C467.339 213.945 460.191 219.246 450.161 222.211C450.001 222.258 449.86 222.357 449.76 222.491C449.659 222.626 449.606 222.789 449.606 222.957V230.359C449.606 230.485 449.582 230.61 449.535 230.727C449.487 230.843 449.418 230.948 449.331 231.037C449.244 231.125 449.141 231.195 449.028 231.242C448.915 231.289 448.793 231.312 448.671 231.31L424.687 231.091C424.507 231.09 424.335 231.01 424.207 230.868C424.078 230.726 424.004 230.533 424 230.33L423.854 222.84C423.85 222.634 423.772 222.433 423.632 222.269C423.492 222.105 423.298 221.987 423.08 221.933C415.874 220.099 410.061 216.583 405.64 211.385C402.095 207.211 399.481 201.286 397.796 193.61C394.767 179.702 395.108 165.677 398.818 151.536C402.071 139.14 410.017 131.201 422.657 127.719C423.081 127.598 423.452 127.342 423.708 126.993C423.963 126.644 424.087 126.224 424.059 125.802L423.65 119.073C423.637 118.859 423.553 118.655 423.412 118.487C423.271 118.319 423.078 118.196 422.861 118.137C414.603 115.893 408.303 111.734 403.96 105.658C400.659 101.025 398.312 94.2954 396.919 85.469C394.913 72.7998 395.624 60.121 399.052 47.4323C402.295 35.4069 410.241 27.6094 422.89 24.0398C423.214 23.949 423.498 23.768 423.697 23.5263C423.896 23.2846 423.998 22.9964 423.986 22.7085L423.679 14.8379C423.675 14.741 423.689 14.6444 423.719 14.5538C423.75 14.4632 423.797 14.3805 423.857 14.3107C423.917 14.241 423.989 14.1857 424.069 14.148C424.149 14.1104 424.235 14.0912 424.322 14.0918H448.423C448.652 14.0902 448.872 14.1668 449.038 14.3057C449.204 14.4447 449.303 14.6352 449.314 14.8379L449.825 22.4306C449.842 22.7118 449.92 22.9749 450.048 23.1824C450.177 23.39 450.349 23.5313 450.541 23.5863C458.789 26.0636 465.109 30.2817 469.501 36.2408C472.86 40.8052 475.275 47.5835 476.745 56.5757C478.917 69.9666 478.269 82.7479 474.803 94.9196C471.395 106.867 463.517 114.606 451.169 118.137C450.952 118.199 450.754 118.318 450.595 118.482C450.436 118.646 450.322 118.85 450.263 119.073C449.504 121.911 449.377 124.442 449.884 126.666C449.927 126.874 450.035 127.068 450.196 127.224C450.356 127.379 450.562 127.49 450.789 127.543ZM448.788 53.4012C440.832 62.3934 433.076 62.6421 425.52 54.1473C424.721 53.25 424.181 53.3865 423.898 54.5569C421.279 65.4997 421.347 76.7254 424.103 88.2339C424.327 89.1409 424.687 89.2043 425.184 88.4241C429.088 82.3187 434.887 80.4901 442.58 82.9381C443.71 83.2989 445.857 85.2495 449.022 88.7898C449.353 89.1604 449.572 89.1068 449.679 88.6289C452.172 77.3935 452.294 65.7679 450.044 53.7523C449.869 52.777 449.45 52.6599 448.788 53.4012ZM447.196 190.187C447.693 190.86 448.072 191.42 448.335 191.869C449.202 193.391 449.806 193.288 450.147 191.562C451.081 186.695 451.559 181.892 451.578 177.152C451.607 171.505 451.597 168.13 451.549 167.028C451.383 163.585 450.726 160.24 449.577 156.992C449.411 156.524 449.168 156.48 448.847 156.861C440.316 167.072 432.287 167.023 424.76 156.714C424.458 156.295 424.249 156.339 424.132 156.846C421.347 168.501 421.327 180.195 424.073 191.928C424.249 192.718 424.58 192.791 425.067 192.147C431.133 184.023 438.042 182.887 445.794 188.738C446.32 189.138 446.787 189.621 447.196 190.187Z" fill="black"/>
</svg>

<svg xmlns="http://www.w3.org/2000/svg" fill="none" viewBox="0 0 478 256"><path fill="#000" d="M236.834 98.084q5.576 13.828 16.921 28.227 6.728 8.541 10.139 19.56 3.051 9.863 2.622 21.493-1.083 29.02-19.529 52.851-4.966 6.426-10.958 10.197-14.41 9.084-31.443 10.406-19.376 1.502-37.768 1.572a5.66 5.66 0 0 0-3.384 1.127 73.5 73.5 0 0 1-21.748 11.073q-9.639 3.033-19.071-.459a62.6 62.6 0 0 1-14.633-7.707 40 40 0 0 0-4.633-2.852q-2.219-1.182-5.131-1.196-19.377-.153-35.785-1.377-14.41-1.072-27.657-8.083-9.237-4.897-15.84-13.467-5.2-6.76-10.36-17.612Q1.904 187.8.365 172.484q-2.15-21.466 8.364-39.593.013-.042 9.598-13.48a107.6 107.6 0 0 0 11.65-20.868 2.47 2.47 0 0 0-.264-2.393q-13.34-18.793-17.904-40.872-1.984-9.57 1.484-22.328Q20.782 5.39 48.563.675 61.823-1.58 75.11 3.694q14.744 5.842 27.255 16.276 1.955 1.642 4.396.946 25.868-7.331 54.066.167a2.75 2.75 0 0 0 2.371-.459q8.266-6.204 17.782-11.964 22.302-13.522 45.881-5.578 7.102 2.379 12.109 6.538a39.9 39.9 0 0 1 9.099 10.684q4.936 8.459 6.81 18.934 1.803 10.1-.791 20.534-3.69 14.732-9.348 23.941a483 483 0 0 0-7.809 13.147 1.4 1.4 0 0 0-.19.605c-.017.212.015.424.093.62m110.558 81.408q13.626 3.525 20.272 14.512 3.84 6.35 5.637 17.511 1.432 8.895 1.402 18.536c-.004.343-.141.67-.381.911a1.28 1.28 0 0 1-.904.376h-23.792a.9.9 0 0 1-.662-.29.93.93 0 0 1-.243-.69q.789-11.542-2.337-21.198-.526-1.638-1.504-.234-1.84 2.634-4.002 4.477-2.322 1.974-5.272 2.516-8.18 1.521-13.116-5.94-1.08-1.623-1.723.22a25.3 25.3 0 0 0-1.446 8.704q.058 5.501-.555 11.689a.84.84 0 0 1-.269.534.8.8 0 0 1-.549.212h-24.405a.96.96 0 0 1-.672-.272.97.97 0 0 1-.292-.664q-.336-13.18 2.235-24.797 4.278-19.355 24.463-25.835c.297-.099.556-.287.739-.539a1.47 1.47 0 0 0 .283-.866v-7.461a.95.95 0 0 0-.73-.922q-12.808-2.969-19.717-13.62-5.462-8.425-6.879-21.549-1.913-17.613 2.6-34.745 4.834-18.36 23.967-23.992c.216-.064.405-.193.539-.37a1 1 0 0 0 .206-.61l-.044-7.9a.94.94 0 0 0-.209-.565 1.03 1.03 0 0 0-.521-.342q-20.448-5.838-24.873-26.948a98.3 98.3 0 0 1-2.03-24.416.78.78 0 0 1 .774-.746l24.61-.088a.82.82 0 0 1 .818.76q.569 6.73.482 13.138a18 18 0 0 0 1.781 8.134.45.45 0 0 0 .365.26.53.53 0 0 0 .439-.173q11.64-12.859 23.309.82 1.009 1.185 1.417-.307 2.746-10.007 2.118-21.579a1 1 0 0 1 .269-.742 1 1 0 0 1 .724-.311h23.879a1.08 1.08 0 0 1 1.081 1.068q.234 12.361-2.234 23.539-2.484 11.322-7.727 17.438-6.571 7.68-17.307 10.182a1 1 0 0 0-.545.33.9.9 0 0 0-.214.577l-.044 7.549c0 .24.081.474.231.667s.362.334.602.4q12.093 3.19 18.723 12.202 5.01 6.832 7.215 19.852 3.447 20.422-1.957 39.69-5.01 17.847-23.66 22.588a1.35 1.35 0 0 0-.629.344.84.84 0 0 0-.262.548l-.292 7.534a.76.76 0 0 0 .216.544c.149.162.362.285.602.349m-2.527-74.113q-2.161 3.788-5.886 5.72-3.753 1.945-7.682 1.404-4.893-.688-8.091-5.164-2.25-3.16-2.892.673-2.6 15.405.263 31.717.219 1.316 1.168.38 12.576-12.582 23.31.644 1.066 1.301 1.49-.322 4.6-17.511-.059-34.848-.555-2.077-1.621-.204m105.872 22.163q18.052 4.345 23.368 21.418 4.966 15.888 3.389 33.136-1.46 16.195-5.944 24.211-6.397 11.456-21.441 15.903a.774.774 0 0 0-.555.746v7.402a.96.96 0 0 1-.274.678.9.9 0 0 1-.304.205.9.9 0 0 1-.356.068l-23.982-.219a.65.65 0 0 1-.48-.223.82.82 0 0 1-.206-.538l-.146-7.49a.9.9 0 0 0-.223-.571 1.06 1.06 0 0 0-.552-.336q-10.808-2.751-17.438-10.548-5.316-6.261-7.843-17.775-4.542-20.862 1.022-42.074 4.88-18.594 23.836-23.817a1.97 1.97 0 0 0 1.051-.726c.255-.349.379-.769.351-1.191l-.409-6.729a1 1 0 0 0-.238-.586 1.1 1.1 0 0 0-.551-.35q-12.384-3.366-18.899-12.479-4.95-6.95-7.039-20.189-3.009-19.004 2.132-38.037 4.863-18.038 23.836-23.392c.323-.091.607-.272.806-.514a1.2 1.2 0 0 0 .289-.817l-.307-7.871a.78.78 0 0 1 .178-.527.6.6 0 0 1 .212-.163.6.6 0 0 1 .253-.056h24.098a.95.95 0 0 1 .615.214.75.75 0 0 1 .276.532l.511 7.593c.017.28.095.544.223.751.129.208.301.35.493.404q12.37 3.717 18.957 12.655 5.04 6.846 7.244 20.335 3.257 20.085-1.942 38.344-5.112 17.92-23.631 23.217a1.3 1.3 0 0 0-.574.345 1.33 1.33 0 0 0-.331.591q-1.14 4.257-.38 7.593c.043.208.151.402.312.558.16.155.366.266.593.319m-2.001-74.142q-11.933 13.488-23.265.746-1.198-1.345-1.622.41-3.929 16.414.205 33.677.336 1.36 1.081.19 5.856-9.158 17.394-5.486 1.695.54 6.441 5.852.497.555.657-.161 3.74-16.854.365-34.877-.263-1.463-1.256-.35m-1.592 136.786q.745 1.009 1.14 1.682 1.3 2.282 1.811-.307 1.402-7.3 1.431-14.41.043-8.47-.029-10.124a35 35 0 0 0-1.972-10.036q-.248-.702-.73-.131-12.794 15.317-24.084-.147-.453-.629-.628.132-4.177 17.483-.058 35.082.262 1.185.993.219 9.099-12.186 20.724-3.409.789.6 1.402 1.449"/></svg>
